static/logo-long.svg

<svg width="1193" height="93" viewBox="0 0 1193 93" fill="none" xmlns="http://www.w3.org/2000/svg">
<path d="M93.3845 93H0.7125V0.839996H93.3845C97.3952 0.839996 101.107 1.608 104.521 3.144C108.019 4.59466 111.049 6.64266 113.609 9.28799C116.254 11.848 118.302 14.8773 119.753 18.376C121.289 21.7893 122.057 25.5013 122.057 29.512V64.328C122.057 68.2533 121.289 71.9653 119.753 75.464C118.302 78.9627 116.254 82.0347 113.609 84.68C111.049 87.24 108.019 89.288 104.521 90.824C101.107 92.2747 97.3952 93 93.3845 93ZM100.937 56.904V37.192C100.937 34.9733 100.553 32.968 99.7845 31.176C99.0165 29.2987 97.9498 27.6773 96.5845 26.312C95.2192 24.8613 93.5978 23.7947 91.7205 23.112C89.9285 22.344 87.9658 21.96 85.8325 21.96H21.8325V71.88H85.8325C87.8805 71.88 89.8005 71.5387 91.5925 70.856C93.4698 70.088 95.0912 69.0213 96.4565 67.656C97.9072 66.2907 99.0165 64.712 99.7845 62.92C100.553 61.0427 100.937 59.0373 100.937 56.904ZM226.388 93H162.132C158.206 93 154.494 92.2747 150.996 90.824C147.582 89.288 144.553 87.24 141.908 84.68C139.348 82.0347 137.3 79.0053 135.764 75.592C134.313 72.0933 133.588 68.3813 133.588 64.456V29.384C133.588 25.4587 134.313 21.7893 135.764 18.376C137.3 14.8773 139.348 11.848 141.908 9.28799C144.553 6.64266 147.582 4.59466 150.996 3.144C154.494 1.608 158.206 0.839996 162.132 0.839996H226.388C230.313 0.839996 233.982 1.608 237.396 3.144C240.894 4.59466 243.924 6.64266 246.484 9.28799C249.129 11.848 251.177 14.8773 252.628 18.376C254.164 21.7893 254.932 25.4587 254.932 29.384V64.456C254.932 68.3813 254.164 72.0933 252.628 75.592C251.177 79.0053 249.129 82.0347 246.484 84.68C243.924 87.24 240.894 89.288 237.396 90.824C233.982 92.2747 230.313 93 226.388 93ZM233.812 56.776V37.192C233.812 35.144 233.428 33.224 232.66 31.432C231.977 29.5547 230.953 27.9333 229.588 26.568C228.308 25.1173 226.729 24.008 224.852 23.24C223.06 22.3867 221.097 21.96 218.964 21.96H170.068C167.934 21.96 165.929 22.344 164.052 23.112C162.174 23.7947 160.51 24.8187 159.06 26.184C157.694 27.5493 156.628 29.1707 155.86 31.048C155.092 32.84 154.708 34.8453 154.708 37.064V56.904C154.708 58.952 155.049 60.872 155.732 62.664C156.5 64.456 157.566 66.0773 158.932 67.528C160.297 68.8933 161.876 69.96 163.668 70.728C165.545 71.496 167.593 71.88 169.812 71.88H218.58C220.884 71.88 222.932 71.496 224.724 70.728C226.601 69.96 228.222 68.8933 229.588 67.528C230.953 66.0773 231.977 64.456 232.66 62.664C233.428 60.7867 233.812 58.824 233.812 56.776ZM364.383 68.296V0.839996H385.503V93H359.007L287.583 25.672V93H266.463V0.839996H293.087L364.383 68.296ZM522.528 35.656H501.408C501.408 33.864 501.066 32.1573 500.384 30.536C499.786 28.8293 498.848 27.3787 497.568 26.184C496.373 24.904 494.88 23.88 493.088 23.112C491.381 22.344 489.376 21.96 487.072 21.96H433.568C431.349 21.96 429.301 22.344 427.424 23.112C425.632 23.7947 424.01 24.8187 422.56 26.184C421.194 27.5493 420.128 29.2133 419.36 31.176C418.592 33.0533 418.208 35.144 418.208 37.448V56.776C418.208 58.9947 418.592 61.0427 419.36 62.92C420.128 64.712 421.194 66.2907 422.56 67.656C424.01 69.0213 425.674 70.088 427.552 70.856C429.429 71.5387 431.434 71.88 433.568 71.88H487.072C488.864 71.88 490.613 71.5387 492.32 70.856C494.026 70.088 495.562 69.064 496.928 67.784C498.293 66.504 499.36 65.0107 500.128 63.304C500.981 61.512 501.408 59.592 501.408 57.544H522.528V60.104C522.528 64.1147 521.802 68.0827 520.352 72.008C518.901 75.9333 516.853 79.4747 514.208 82.632C511.648 85.704 508.533 88.2213 504.864 90.184C501.194 92.0613 497.141 93 492.704 93H425.76C421.834 93 418.122 92.2747 414.624 90.824C411.125 89.288 408.053 87.24 405.408 84.68C402.848 82.0347 400.8 78.9627 399.264 75.464C397.813 71.9653 397.088 68.2533 397.088 64.328V29.512C397.088 25.5013 397.813 21.7893 399.264 18.376C400.8 14.8773 402.848 11.848 405.408 9.28799C408.053 6.64266 411.125 4.59466 414.624 3.144C418.122 1.608 421.834 0.839996 425.76 0.839996H492.704C497.141 0.839996 501.194 1.82133 504.864 3.784C508.533 5.66133 511.648 8.136 514.208 11.208C516.853 14.28 518.901 17.736 520.352 21.576C521.802 25.416 522.528 29.256 522.528 33.096V35.656ZM534.088 93V0.839996H649.928V21.96H555.208V36.424H646.856V57.416H555.208V71.88H649.928V93H534.088ZM661.463 0.839996H784.727V21.576L701.527 71.88H784.727V93H661.463V72.136L744.535 21.96H661.463V0.839996ZM932.209 93H907.889L896.753 75.72H826.993L816.113 93H791.793L848.369 0.839996H875.505L932.209 93ZM860.657 21.96L839.409 54.6H884.721L863.345 21.96H860.657ZM1059.02 93H1033.29L1014.99 66.376H960.333V93H939.213V0.839996H1031.88C1035.9 0.839996 1039.61 1.56533 1043.02 3.016C1046.52 4.46666 1049.55 6.38666 1052.11 8.77599C1054.75 11.1653 1056.8 13.9387 1058.25 17.096C1059.79 20.168 1060.56 23.3253 1060.56 26.568V40.008C1060.56 42.7387 1059.96 45.512 1058.76 48.328C1057.66 51.144 1056.12 53.7467 1054.16 56.136C1052.28 58.5253 1050.06 60.5733 1047.5 62.28C1045.03 63.9013 1042.47 64.968 1039.82 65.48L1059.02 93ZM1039.44 34.888V31.816C1039.44 30.4507 1039.14 29.1707 1038.54 27.976C1038.03 26.7813 1037.22 25.7573 1036.11 24.904C1035.08 23.9653 1033.8 23.24 1032.27 22.728C1030.82 22.216 1029.15 21.96 1027.28 21.96H960.333V45.256H1027.28C1029.41 45.256 1031.24 44.9573 1032.78 44.36C1034.32 43.7627 1035.55 42.9947 1036.49 42.056C1037.52 41.032 1038.24 39.9227 1038.67 38.728C1039.18 37.448 1039.44 36.168 1039.44 34.888ZM1192.34 0.839996V21.96H1141.14V93H1120.02V21.96H1069.46V0.839996H1192.34Z" fill="white"/>
</svg>

<svg xmlns="http://www.w3.org/2000/svg" width="1193" height="93" fill="none" xmlns:v="https://vecta.io/nano"><path d="M93.385 93H.713V.84h92.672c4.011 0 7.722.768 11.136 2.304 3.498 1.451 6.528 3.499 9.088 6.144 2.645 2.56 4.693 5.589 6.144 9.088 1.536 3.413 2.304 7.125 2.304 11.136v34.816c0 3.925-.768 7.637-2.304 11.136-1.451 3.499-3.499 6.571-6.144 9.216-2.56 2.56-5.59 4.608-9.088 6.144C101.107 92.275 97.395 93 93.385 93zm7.552-36.096V37.192c0-2.219-.384-4.224-1.153-6.016-.768-1.877-1.835-3.499-3.2-4.864-1.365-1.451-2.987-2.517-4.864-3.2-1.792-.768-3.755-1.152-5.888-1.152h-64v49.92h64c2.048 0 3.968-.341 5.76-1.024 1.877-.768 3.499-1.835 4.864-3.2 1.451-1.365 2.56-2.944 3.328-4.736.769-1.877 1.153-3.883 1.153-6.016zM226.388 93h-64.256c-3.926 0-7.638-.725-11.136-2.176-3.414-1.536-6.443-3.584-9.088-6.144-2.56-2.645-4.608-5.675-6.144-9.088-1.451-3.499-2.176-7.211-2.176-11.136V29.384c0-3.925.725-7.595 2.176-11.008 1.536-3.499 3.584-6.528 6.144-9.088 2.645-2.645 5.674-4.693 9.088-6.144 3.498-1.536 7.21-2.304 11.136-2.304h64.256c3.925 0 7.594.768 11.008 2.304 3.498 1.451 6.528 3.499 9.088 6.144 2.645 2.56 4.693 5.589 6.144 9.088 1.536 3.413 2.304 7.083 2.304 11.008v35.072c0 3.925-.768 7.637-2.304 11.136-1.451 3.413-3.499 6.443-6.144 9.088-2.56 2.56-5.59 4.608-9.088 6.144-3.414 1.451-7.083 2.176-11.008 2.176zm7.424-36.224V37.192c0-2.048-.384-3.968-1.152-5.76-.683-1.877-1.707-3.499-3.072-4.864-1.28-1.451-2.859-2.56-4.736-3.328-1.792-.853-3.755-1.28-5.888-1.28h-48.896c-2.134 0-4.139.384-6.016 1.152-1.878.683-3.542 1.707-4.992 3.072-1.366 1.365-2.432 2.987-3.2 4.864-.768 1.792-1.152 3.797-1.152 6.016v19.84c0 2.048.341 3.968 1.024 5.76.768 1.792 1.834 3.413 3.2 4.864 1.365 1.365 2.944 2.432 4.736 3.2 1.877.768 3.925 1.152 6.144 1.152h48.768c2.304 0 4.352-.384 6.144-1.152 1.877-.768 3.498-1.835 4.864-3.2 1.365-1.451 2.389-3.072 3.072-4.864.768-1.877 1.152-3.84 1.152-5.888zm130.571 11.52V.84h21.12V93h-26.496l-71.424-67.328V93h-21.12V.84h26.624l71.296 67.456zm158.145-32.64h-21.12c0-1.792-.342-3.499-1.024-5.12-.598-1.707-1.536-3.157-2.816-4.352-1.195-1.28-2.688-2.304-4.48-3.072-1.707-.768-3.712-1.152-6.016-1.152h-53.504c-2.219 0-4.267.384-6.144 1.152-1.792.683-3.414 1.707-4.864 3.072-1.366 1.365-2.432 3.029-3.2 4.992-.768 1.877-1.152 3.968-1.152 6.272v19.328c0 2.219.384 4.267 1.152 6.144.768 1.792 1.834 3.371 3.2 4.736 1.45 1.365 3.114 2.432 4.992 3.2 1.877.683 3.882 1.024 6.016 1.024h53.504c1.792 0 3.541-.341 5.248-1.024a16.75 16.75 0 0 0 4.608-3.072c1.365-1.28 2.432-2.773 3.2-4.48.853-1.792 1.28-3.712 1.28-5.76h21.12v2.56c0 4.011-.726 7.979-2.176 11.904s-3.499 7.467-6.144 10.624c-2.56 3.072-5.675 5.589-9.344 7.552-3.67 1.877-7.723 2.816-12.16 2.816H425.76c-3.926 0-7.638-.725-11.136-2.176-3.499-1.536-6.571-3.584-9.216-6.144-2.56-2.645-4.608-5.717-6.144-9.216-1.451-3.499-2.176-7.211-2.176-11.136V29.512c0-4.011.725-7.723 2.176-11.136 1.536-3.499 3.584-6.528 6.144-9.088 2.645-2.645 5.717-4.693 9.216-6.144C418.122 1.608 421.834.84 425.76.84h66.944c4.437 0 8.49.981 12.16 2.944 3.669 1.877 6.784 4.352 9.344 7.424a34.39 34.39 0 0 1 6.144 10.368c1.45 3.84 2.176 7.68 2.176 11.52v2.56zM534.088 93V.84h115.84v21.12h-94.72v14.464h91.648v20.992h-91.648V71.88h94.72V93h-115.84zM661.463.84h123.264v20.736l-83.2 50.304h83.2V93H661.463V72.136l83.072-50.176h-83.072V.84zM932.209 93h-24.32l-11.136-17.28h-69.76L816.113 93h-24.32L848.369.84h27.136L932.209 93zm-71.552-71.04L839.409 54.6h45.312l-21.376-32.64h-2.688zM1059.02 93h-25.73l-18.3-26.624h-54.657V93h-21.12V.84h92.667c4.02 0 7.73.725 11.14 2.176 3.5 1.451 6.53 3.371 9.09 5.76 2.64 2.389 4.69 5.163 6.14 8.32 1.54 3.072 2.31 6.229 2.31 9.472v13.44c0 2.731-.6 5.504-1.8 8.32-1.1 2.816-2.64 5.419-4.6 7.808-1.88 2.389-4.1 4.437-6.66 6.144-2.47 1.621-5.03 2.688-7.68 3.2l19.2 27.52zm-19.58-58.112v-3.072c0-1.365-.3-2.645-.9-3.84-.51-1.195-1.32-2.219-2.43-3.072-1.03-.939-2.31-1.664-3.84-2.176-1.45-.512-3.12-.768-4.99-.768h-66.947v23.296h66.947c2.13 0 3.96-.299 5.5-.896s2.77-1.365 3.71-2.304c1.03-1.024 1.75-2.133 2.18-3.328.51-1.28.77-2.56.77-3.84zM1192.34.84v21.12h-51.2V93h-21.12V21.96h-50.56V.84h122.88z" fill="#fff"/></svg>
